pic/misc/yinyang.svg

<?xml version="1.0" encoding="UTF-8" standalone="no"?>
<!-- Created with Inkscape (http://www.inkscape.org/) -->

<svg
   xmlns:dc="http://purl.org/dc/elements/1.1/"
   xmlns:cc="http://creativecommons.org/ns#"
   xmlns:rdf="http://www.w3.org/1999/02/22-rdf-syntax-ns#"
   xmlns:svg="http://www.w3.org/2000/svg"
   xmlns="http://www.w3.org/2000/svg"
   xmlns:xlink="http://www.w3.org/1999/xlink"
   xmlns:sodipodi="http://sodipodi.sourceforge.net/DTD/sodipodi-0.dtd"
   xmlns:inkscape="http://www.inkscape.org/namespaces/inkscape"
   width="128.00035"
   height="127.931"
   id="svg3523"
   sodipodi:version="0.32"
   inkscape:version="0.92.2 (5c3e80d, 2017-08-06)"
   version="1.0"
   sodipodi:docname="yinyang.svg"
   inkscape:output_extension="org.inkscape.output.svg.inkscape"
   inkscape:export-filename="/home/thp/ocal_stellaris_yin-yang_20061105.png"
   inkscape:export-xdpi="90"
   inkscape:export-ydpi="90"
   sodipodi:modified="TRUE">
  <title
     id="title826">Yin Yang</title>
  <defs
     id="defs3525">
    <linearGradient
       id="linearGradient2326">
      <stop
         style="stop-color:#ffffff;stop-opacity:1;"
         offset="0"
         id="stop2328" />
      <stop
         style="stop-color:#7d7d7d;stop-opacity:0.98823529;"
         offset="1"
         id="stop2330" />
    </linearGradient>
    <linearGradient
       inkscape:collect="always"
       xlink:href="#linearGradient2326"
       id="linearGradient2332"
       x1="238.13484"
       y1="414.34055"
       x2="311.82184"
       y2="515.88483"
       gradientUnits="userSpaceOnUse" />
    <linearGradient
       id="linearGradient2294">
      <stop
         style="stop-color:#000000;stop-opacity:1;"
         offset="0"
         id="stop2296" />
      <stop
         style="stop-color:#ffffff;stop-opacity:0;"
         offset="1"
         id="stop2298" />
    </linearGradient>
    <linearGradient
       inkscape:collect="always"
       xlink:href="#linearGradient2294"
       id="linearGradient2300"
       x1="204.88582"
       y1="417.03641"
       x2="97.05117"
       y2="265.16928"
       gradientUnits="userSpaceOnUse" />
  </defs>
  <sodipodi:namedview
     id="base"
     pagecolor="#ffffff"
     bordercolor="#666666"
     borderopacity="1.0"
     inkscape:pageopacity="0.0"
     inkscape:pageshadow="2"
     inkscape:zoom="1.5159916"
     inkscape:cx="-81.712891"
     inkscape:cy="62.579445"
     inkscape:document-units="px"
     inkscape:current-layer="layer1"
     width="300px"
     height="300px"
     inkscape:window-width="1920"
     inkscape:window-height="1025"
     inkscape:window-x="-8"
     inkscape:window-y="-8"
     showgrid="false"
     inkscape:window-maximized="1"
     fit-margin-top="0"
     fit-margin-left="0"
     fit-margin-right="0"
     fit-margin-bottom="0" />
  <metadata
     id="metadata3528">
    <rdf:RDF>
      <cc:Work
         rdf:about="">
        <dc:format>image/svg+xml</dc:format>
        <dc:type
           rdf:resource="http://purl.org/dc/dcmitype/StillImage" />
        <dc:title>Yin Yang</dc:title>
        <dc:date>20061105</dc:date>
        <dc:creator>
          <cc:Agent>
            <dc:title>Stellaris</dc:title>
          </cc:Agent>
        </dc:creator>
        <cc:license
           rdf:resource="http://creativecommons.org/publicdomain/zero/1.0/" />
      </cc:Work>
      <cc:License
         rdf:about="http://creativecommons.org/publicdomain/zero/1.0/">
        <cc:permits
           rdf:resource="http://creativecommons.org/ns#Reproduction" />
        <cc:permits
           rdf:resource="http://creativecommons.org/ns#Distribution" />
        <cc:permits
           rdf:resource="http://creativecommons.org/ns#DerivativeWorks" />
      </cc:License>
    </rdf:RDF>
  </metadata>
  <g
     inkscape:label="Ebene 1"
     inkscape:groupmode="layer"
     id="layer1"
     transform="translate(-318.89349,-392.64492)">
    <g
       id="g2336"
       transform="matrix(0.51566203,0,0,0.49814746,260.28055,252.62515)">
      <path
         sodipodi:nodetypes="cscscsc"
         d="m 237.03357,535.89447 c -34.69714,-0.38944 -62.85714,-28.54944 -62.85714,-63.24658 0,-34.69714 28.16,-62.85715 62.85714,-63 34.69714,-0.14286 62.85714,-28.30286 62.85714,-63 0,-34.69714 -28.16,-62.85715 -62.85714,-63.56047 -66.99522,-0.70332 -121.36815,56.083 -121.36815,126.05186 0,69.96887 54.37293,126.75519 121.36815,126.75519 z"
         style="color:#000000;display:inline;overflow:visible;visibility:visible;fill:url(#linearGradient2300);fill-opacity:1;fill-rule:nonzero;stroke:#000000;stroke-width:4;stroke-linecap:butt;stroke-linejoin:miter;stroke-miterlimit:4;stroke-dashoffset:0;stroke-opacity:1;marker:none;marker-start:none;marker-mid:none;marker-end:none"
         id="path1334"
         inkscape:connector-curvature="0" />
      <path
         id="path2238"
         style="color:#000000;display:inline;overflow:visible;visibility:visible;fill:url(#linearGradient2332);fill-opacity:1;fill-rule:nonzero;stroke:#000000;stroke-width:4;stroke-linecap:butt;stroke-linejoin:miter;stroke-miterlimit:4;stroke-dashoffset:0;stroke-opacity:1;marker:none;marker-start:none;marker-mid:none;marker-end:none"
         d="m 238.52256,283.08096 c 34.69714,0.38944 62.85714,28.54944 62.85714,63.24658 0,34.69714 -28.16,62.85715 -62.85714,63 -34.69714,0.14286 -62.85714,28.30286 -62.85714,63 0,34.69714 28.16,62.85715 62.85714,63.56047 66.99522,0.70332 121.36815,-56.083 121.36815,-126.05186 0,-69.96887 -54.37293,-126.75519 -121.36815,-126.75519 z"
         sodipodi:nodetypes="cscscsc"
         inkscape:connector-curvature="0" />
      <g
         id="g2322">
        <circle
           style="color:#000000;display:inline;overflow:visible;visibility:visible;fill:#000000;fill-opacity:1;fill-rule:nonzero;stroke:none;stroke-width:4;stroke-linecap:butt;stroke-linejoin:miter;stroke-miterlimit:4;stroke-dasharray:none;stroke-dashoffset:0;stroke-opacity:1;marker:none;marker-start:none;marker-mid:none;marker-end:none"
           id="path2240"
           transform="matrix(1.823529,0,0,1.823529,481.4537,-57.36276)"
           cx="-133.44537"
           cy="288.98276"
           r="7.6382871" />
        <circle
           transform="matrix(1.823529,0,0,1.823529,481.4537,-184.9671)"
           id="path2304"
           style="color:#000000;display:inline;overflow:visible;visibility:visible;fill:#ffffff;fill-opacity:1;fill-rule:nonzero;stroke:none;stroke-width:4;stroke-linecap:butt;stroke-linejoin:miter;stroke-miterlimit:4;stroke-dasharray:none;stroke-dashoffset:0;stroke-opacity:1;marker:none;marker-start:none;marker-mid:none;marker-end:none"
           cx="-133.44537"
           cy="288.98276"
           r="7.6382871" />
      </g>
    </g>
  </g>
</svg>

<?xml version="1.0" encoding="UTF-8" standalone="no"?>
<!-- Created with Inkscape (http://www.inkscape.org/) -->
<svg
   xmlns:dc="http://purl.org/dc/elements/1.1/"
   xmlns:cc="http://web.resource.org/cc/"
   xmlns:rdf="http://www.w3.org/1999/02/22-rdf-syntax-ns#"
   xmlns:svg="http://www.w3.org/2000/svg"
   xmlns="http://www.w3.org/2000/svg"
   xmlns:xlink="http://www.w3.org/1999/xlink"
   xmlns:sodipodi="http://sodipodi.sourceforge.net/DTD/sodipodi-0.dtd"
   xmlns:inkscape="http://www.inkscape.org/namespaces/inkscape"
   width="300"
   height="300"
   id="svg3523"
   sodipodi:version="0.32"
   inkscape:version="0.44+devel"
   version="1.0"
   sodipodi:docbase="/home/thp"
   sodipodi:docname="ocal_stellaris_yin-yang_20061105.svg"
   inkscape:output_extension="org.inkscape.output.svg.inkscape"
   inkscape:export-filename="/home/thp/ocal_stellaris_yin-yang_20061105.png"
   inkscape:export-xdpi="90"
   inkscape:export-ydpi="90"
   sodipodi:modified="TRUE">
  <defs
     id="defs3525">
    <linearGradient
       id="linearGradient2326">
      <stop
         style="stop-color:#ffffff;stop-opacity:1;"
         offset="0"
         id="stop2328" />
      <stop
         style="stop-color:#7d7d7d;stop-opacity:0.98823529;"
         offset="1"
         id="stop2330" />
    </linearGradient>
    <linearGradient
       inkscape:collect="always"
       xlink:href="#linearGradient2326"
       id="linearGradient2332"
       x1="238.13484"
       y1="414.34055"
       x2="311.82184"
       y2="515.88483"
       gradientUnits="userSpaceOnUse" />
    <linearGradient
       id="linearGradient2294">
      <stop
         style="stop-color:#000000;stop-opacity:1;"
         offset="0"
         id="stop2296" />
      <stop
         style="stop-color:#ffffff;stop-opacity:0;"
         offset="1"
         id="stop2298" />
    </linearGradient>
    <linearGradient
       inkscape:collect="always"
       xlink:href="#linearGradient2294"
       id="linearGradient2300"
       x1="204.88582"
       y1="417.03641"
       x2="97.05117"
       y2="265.16928"
       gradientUnits="userSpaceOnUse" />
  </defs>
  <sodipodi:namedview
     id="base"
     pagecolor="#ffffff"
     bordercolor="#666666"
     borderopacity="1.0"
     inkscape:pageopacity="0.0"
     inkscape:pageshadow="2"
     inkscape:zoom="1.5159916"
     inkscape:cx="125"
     inkscape:cy="148.61394"
     inkscape:document-units="px"
     inkscape:current-layer="layer1"
     width="300px"
     height="300px"
     inkscape:window-width="907"
     inkscape:window-height="691"
     inkscape:window-x="0"
     inkscape:window-y="46" />
  <metadata
     id="metadata3528">
    <rdf:RDF>
      <cc:Work
         rdf:about="">
        <dc:format>image/svg+xml</dc:format>
        <dc:type
           rdf:resource="http://purl.org/dc/dcmitype/StillImage" />
        <dc:title>Yin Yang</dc:title>
        <dc:date>20061105</dc:date>
        <dc:creator>
          <cc:Agent>
            <dc:title>Stellaris</dc:title>
          </cc:Agent>
        </dc:creator>
        <cc:license
           rdf:resource="http://web.resource.org/cc/PublicDomain" />
      </cc:Work>
      <cc:License
         rdf:about="http://web.resource.org/cc/PublicDomain">
        <cc:permits
           rdf:resource="http://web.resource.org/cc/Reproduction" />
        <cc:permits
           rdf:resource="http://web.resource.org/cc/Distribution" />
        <cc:permits
           rdf:resource="http://web.resource.org/cc/DerivativeWorks" />
      </cc:License>
    </rdf:RDF>
  </metadata>
  <g
     inkscape:label="Ebene 1"
     inkscape:groupmode="layer"
     id="layer1"
     transform="translate(-232.89367,-306.61041)">
    <g
       id="g2336"
       transform="matrix(1.0074277,0,0,0.9732102,143.34946,58.092789)">
      <path
         sodipodi:nodetypes="cscscsc"
         d="M 237.03357,535.89447 C 202.33643,535.50503 174.17643,507.34503 174.17643,472.64789 C 174.17643,437.95075 202.33643,409.79074 237.03357,409.64789 C 271.73071,409.50503 299.89071,381.34503 299.89071,346.64789 C 299.89071,311.95075 271.73071,283.79074 237.03357,283.08742 C 170.03835,282.3841 115.66542,339.17042 115.66542,409.13928 C 115.66542,479.10815 170.03835,535.89447 237.03357,535.89447 z "
         style="color:#000000;fill:url(#linearGradient2300);fill-opacity:1;fill-rule:nonzero;stroke:#000000;stroke-width:4;stroke-linecap:butt;stroke-linejoin:miter;marker:none;marker-start:none;marker-mid:none;marker-end:none;stroke-miterlimit:4;stroke-dashoffset:0;stroke-opacity:1;visibility:visible;display:inline;overflow:visible"
         id="path1334" />
      <path
         id="path2238"
         style="color:#000000;fill:url(#linearGradient2332);fill-opacity:1;fill-rule:nonzero;stroke:#000000;stroke-width:4;stroke-linecap:butt;stroke-linejoin:miter;marker:none;marker-start:none;marker-mid:none;marker-end:none;stroke-miterlimit:4;stroke-dashoffset:0;stroke-opacity:1;visibility:visible;display:inline;overflow:visible"
         d="M 238.52256,283.08096 C 273.2197,283.4704 301.3797,311.6304 301.3797,346.32754 C 301.3797,381.02468 273.2197,409.18469 238.52256,409.32754 C 203.82542,409.4704 175.66542,437.6304 175.66542,472.32754 C 175.66542,507.02468 203.82542,535.18469 238.52256,535.88801 C 305.51778,536.59133 359.89071,479.80501 359.89071,409.83615 C 359.89071,339.86728 305.51778,283.08096 238.52256,283.08096 z "
         sodipodi:nodetypes="cscscsc" />
      <g
         id="g2322">
        <path
           sodipodi:type="arc"
           style="color:#000000;fill:#000000;fill-opacity:1;fill-rule:nonzero;stroke:none;stroke-width:4;stroke-linecap:butt;stroke-linejoin:miter;marker:none;marker-start:none;marker-mid:none;marker-end:none;stroke-miterlimit:4;stroke-dasharray:none;stroke-dashoffset:0;stroke-opacity:1;visibility:visible;display:inline;overflow:visible"
           id="path2240"
           sodipodi:cx="-133.44537"
           sodipodi:cy="288.98276"
           sodipodi:rx="7.6382871"
           sodipodi:ry="7.6382871"
           d="M -125.80709 288.98276 A 7.6382871 7.6382871 0 1 1  -141.08366,288.98276 A 7.6382871 7.6382871 0 1 1  -125.80709 288.98276 z"
           transform="matrix(1.823529,0,0,1.823529,481.4537,-57.36276)" />
        <path
           transform="matrix(1.823529,0,0,1.823529,481.4537,-184.9671)"
           d="M -125.80709 288.98276 A 7.6382871 7.6382871 0 1 1  -141.08366,288.98276 A 7.6382871 7.6382871 0 1 1  -125.80709 288.98276 z"
           sodipodi:ry="7.6382871"
           sodipodi:rx="7.6382871"
           sodipodi:cy="288.98276"
           sodipodi:cx="-133.44537"
           id="path2304"
           style="color:#000000;fill:#ffffff;fill-opacity:1;fill-rule:nonzero;stroke:none;stroke-width:4;stroke-linecap:butt;stroke-linejoin:miter;marker:none;marker-start:none;marker-mid:none;marker-end:none;stroke-miterlimit:4;stroke-dasharray:none;stroke-dashoffset:0;stroke-opacity:1;visibility:visible;display:inline;overflow:visible"
           sodipodi:type="arc" />
      </g>
    </g>
  </g>
</svg>
